X: 21
T: Love in a tub
R: reel
M: C|
L: 1/16
Z: 2010 John Chambers <jc:trillian.mit.edu>
B: Longman ed. "Twenty Four Country Dances", p.35 London 1770
K: D
|: dcde  d2A2 d2A2 d4    | a2gf  g2fe  f2ed e2A2 |\
   dcde  d2A2 d2A2 d4    | e2a2  b2a^g a4   A4  :|
|: A^GAB cBcd edef g4    | f2A2  g2A2  f2ed e2A2 |\
   D2EF  GABc d2ef gabc' | d'2d2 A2Bc  d4   D4  :|


%%sep 5 1 500

